assets/img/Favicon 1.svg

<svg width="32" height="32" viewBox="0 0 32 32" fill="none" xmlns="http://www.w3.org/2000/svg">
<rect width="32" height="32" rx="4" fill="white"/>
<path d="M4.49951 18.3147H5.37264C6.40712 18.3147 7.25178 17.7168 7.25178 16.3692C7.25178 15.0215 6.40712 14.4141 5.37264 14.4141H4.49951V18.3147ZM5.42959 19.7288H3V13H5.43908C7.46057 13 8.81773 14.2907 8.81773 16.3692C8.81773 18.4476 7.46057 19.7288 5.42959 19.7288Z" fill="black"/>
<path d="M14.157 19.7288H9.88623V13H14.1475V14.4141H11.3857V15.6953H13.8913V17.0145H11.3857V18.3052H14.157V19.7288Z" fill="black"/>
<path d="M18.104 17.7358L19.7079 13H21.3024L18.8443 19.7288H17.2973L14.8298 13H16.4811L18.104 17.7358Z" fill="black"/>
<path d="M20.7727 18.8367C20.7727 18.3052 21.2093 17.8687 21.7408 17.8687C22.2723 17.8687 22.7183 18.3052 22.7183 18.8367C22.7183 19.3587 22.2723 19.8142 21.7408 19.8142C21.2093 19.8142 20.7727 19.3587 20.7727 18.8367Z" fill="black"/>
<path d="M29.7102 13L27.5464 16.3786L29.7292 19.7288H27.907L26.5783 17.546L25.2591 19.7288H23.4939L25.6672 16.3597L23.4939 13H25.2971L26.6258 15.1828L27.9545 13H29.7102Z" fill="#7000FF"/>
</svg>

<svg width="32" height="32" fill="none" xmlns="http://www.w3.org/2000/svg"><rect width="32" height="32" rx="4" fill="#fff"/><path d="M4.5 18.315h.873c1.034 0 1.879-.598 1.879-1.946 0-1.348-.845-1.955-1.88-1.955H4.5v3.9Zm.93 1.414H3V13h2.44c2.02 0 3.378 1.29 3.378 3.37 0 2.078-1.357 3.359-3.388 3.359ZM14.157 19.729h-4.27V13h4.26v1.414h-2.761v1.281h2.505v1.32h-2.505v1.29h2.771v1.424ZM18.104 17.736 19.708 13h1.594l-2.458 6.729h-1.547L14.83 13h1.651l1.623 4.736ZM20.773 18.837a.972.972 0 0 1 1.945 0 .995.995 0 0 1-.977.977.987.987 0 0 1-.968-.977Z" fill="#000"/><path d="m29.71 13-2.164 3.379 2.183 3.35h-1.822l-1.329-2.183-1.319 2.183h-1.765l2.173-3.37L23.494 13h1.803l1.329 2.183L27.954 13h1.756Z" fill="#7000FF"/></svg>
